dist/_astro/purpleWave.gxq5IHcU.svg

<svg xmlns="http://www.w3.org/2000/svg" viewBox="0 321.18 960 219.82"><path fill="transparent" d="m0 389 26.7-17.2c26.6-17.1 80-51.5 133.3-50.6 53.3.8 106.7 36.8 160 64.8s106.7 48 160 33.5 106.7-63.5 160-79.8c53.3-16.4 106.7 0 160 22.6 53.3 22.7 106.7 51.7 133.3 66.2L960 443v98H0Z"/><path fill="#0B0619" d="m0 355 26.7-5c26.6-5 80-15 133.3-2.2 53.3 12.9 106.7 48.5 160 73.4 53.3 24.8 106.7 38.8 160 45 53.3 6.1 106.7 4.5 160-13s106.7-50.9 160-52.5C853.3 399 906.7 429 933.3 444l26.7 15v82H0Z"/><path fill="#140731" d="m0 505 26.7-2.8c26.6-2.9 80-8.5 133.3-17.7s106.7-21.8 160-40.3 106.7-42.9 160-35.2 106.7 47.3 160 66 106.7 16.3 160 4.3 106.7-33.6 133.3-44.5L960 424v117H0Z"/><path fill="#1E004C" d="m0 501 26.7-3c26.6-3 80-9 133.3-8s106.7 9 160 11.3c53.3 2.4 106.7-1 160-10s106.7-23.6 160-26.6 106.7 5.6 160 4.6 106.7-11.6 133.3-17L960 447v94H0Z"/></svg>

<svg xmlns="http://www.w3.org/2000/svg" xmlnsXlink="http://www.w3.org/1999/xlink" id="visual" version="1.1"
    viewBox="0 321.18 960 219.82">
    <path
        d="M0 389L26.7 371.8C53.3 354.7 106.7 320.3 160 321.2C213.3 322 266.7 358 320 386C373.3 414 426.7 434 480 419.5C533.3 405 586.7 356 640 339.7C693.3 323.3 746.7 339.7 800 362.3C853.3 385 906.7 414 933.3 428.5L960 443L960 541L933.3 541C906.7 541 853.3 541 800 541C746.7 541 693.3 541 640 541C586.7 541 533.3 541 480 541C426.7 541 373.3 541 320 541C266.7 541 213.3 541 160 541C106.7 541 53.3 541 26.7 541L0 541Z"
        fill="transparent" />
    <path
        d="M0 355L26.7 350C53.3 345 106.7 335 160 347.8C213.3 360.7 266.7 396.3 320 421.2C373.3 446 426.7 460 480 466.2C533.3 472.3 586.7 470.7 640 453.2C693.3 435.7 746.7 402.3 800 400.7C853.3 399 906.7 429 933.3 444L960 459L960 541L933.3 541C906.7 541 853.3 541 800 541C746.7 541 693.3 541 640 541C586.7 541 533.3 541 480 541C426.7 541 373.3 541 320 541C266.7 541 213.3 541 160 541C106.7 541 53.3 541 26.7 541L0 541Z"
        fill="#0B0619" />
    <path
        d="M0 505L26.7 502.2C53.3 499.3 106.7 493.7 160 484.5C213.3 475.3 266.7 462.7 320 444.2C373.3 425.7 426.7 401.3 480 409C533.3 416.7 586.7 456.3 640 475C693.3 493.7 746.7 491.3 800 479.3C853.3 467.3 906.7 445.7 933.3 434.8L960 424L960 541L933.3 541C906.7 541 853.3 541 800 541C746.7 541 693.3 541 640 541C586.7 541 533.3 541 480 541C426.7 541 373.3 541 320 541C266.7 541 213.3 541 160 541C106.7 541 53.3 541 26.7 541L0 541Z"
        fill="#140731" />
    <path
        d="M0 501L26.7 498C53.3 495 106.7 489 160 490C213.3 491 266.7 499 320 501.3C373.3 503.7 426.7 500.3 480 491.3C533.3 482.3 586.7 467.7 640 464.7C693.3 461.7 746.7 470.3 800 469.3C853.3 468.3 906.7 457.7 933.3 452.3L960 447L960 541L933.3 541C906.7 541 853.3 541 800 541C746.7 541 693.3 541 640 541C586.7 541 533.3 541 480 541C426.7 541 373.3 541 320 541C266.7 541 213.3 541 160 541C106.7 541 53.3 541 26.7 541L0 541Z"
        fill="#1E004C" />
</svg>
